templates/bath_sink.svg

<svg width="263" height="211" viewBox="0 0 263 211" fill="none" xmlns="http://www.w3.org/2000/svg">
<path d="M2.07922 114.897V139.967L6.25389 148.324L10.4289 156.681L14.6035 160.859L18.7782 169.216L27.1276 173.394L35.4772 181.751L43.8265 185.93L52.1762 190.108L60.5255 194.286L73.0499 198.465L81.3992 202.643H89.7485L102.273 206.822H123.147L131.496 211L139.846 206.822H160.719L169.069 202.643H181.593L189.942 198.465L198.292 194.286L210.816 190.108L219.165 185.93L227.515 181.751L235.864 173.394L240.039 169.216L248.388 160.859L252.563 156.681L256.738 148.324V139.967L260.913 131.611V2.08044H2.07922V114.897Z" fill="white"/>
<path d="M44.7642 184.07C69.4082 196.401 94.0826 200.55 123.204 204.717H141.916V208.92H122.837V208.879C93.6245 204.702 68.2676 200.483 42.8889 187.783L41.0135 186.844L42.8889 183.131L44.7642 184.07ZM258.842 119.068V4.16207H4.15843V116.987H0V0H263V119.068C263 144.58 254.488 166.211 237.112 179.255L235.44 180.479L232.953 177.174L234.625 175.909C250.643 163.881 258.842 143.694 258.842 119.068ZM139.837 45.946C155.867 45.946 171.818 50.7765 185.865 56.7184L199.237 62.8799L199.36 62.9615L207.147 68.1437C224.802 81.1453 238.764 100.247 246.203 122.577L246.856 124.576L242.901 125.882L242.249 123.924C234.049 99.3042 217.626 78.8191 197.199 66.5523H197.158C180.564 58.2638 160.131 50.1488 139.837 50.1488H123.163C102.85 50.1488 82.4333 58.2373 61.561 66.5931C41.1796 83.0033 28.8809 103.494 16.3891 124.332L15.3291 126.127L11.7414 123.964L12.8014 122.169C25.3039 101.313 38.0296 80.1057 59.2372 63.1247L59.4818 62.9207L59.7672 62.7983C80.5449 54.4799 101.82 45.946 123.163 45.946H139.837ZM129.4 100.257H133.6V121.149H129.4V100.257ZM125.242 91.9328V96.0948H108.527V91.9328H125.242ZM154.473 91.9328V96.0948H137.758V91.9328H154.473ZM129.4 66.8379H133.6V87.7299H129.4V66.8379Z" fill="#1D2132"/>
<path d="M254.658 135.783C254.657 98.6422 242.282 61.5423 217.599 32.7105L217.11 32.1392L214.99 34.3019L213.523 32.7921C211.41 30.6776 209.433 28.7021 207.489 27.2427C205.525 25.7686 203.879 25.0827 202.474 25.08H200.395V24.1415C177.507 20.904 154.587 20.8772 131.496 20.8772C106.42 20.8772 81.5349 20.8939 56.6847 25.0392L56.3586 25.08C54.9545 25.08 53.3075 25.7704 51.344 27.2427C49.4022 28.7003 47.4203 30.6802 45.3102 32.7921C20.678 61.6115 8.33467 98.6798 8.33286 135.783V137.864H4.17444V135.783C4.17625 97.7269 16.8533 59.635 42.2526 29.9766L42.3341 29.8542C44.393 27.7935 46.5885 25.5697 48.8164 23.8967C50.9276 22.3119 53.363 21.0302 55.9917 20.918L65.4908 19.5306C87.5681 16.7122 109.608 16.7151 131.496 16.7151C156.516 16.7151 181.753 16.7065 207 20.918L209.038 21.2444L208.712 23.1214C209.126 23.3923 209.582 23.6014 209.976 23.8967C212.203 25.569 214.399 27.7935 216.458 29.8542L216.988 30.3846L219.393 28.3852L220.739 29.9766C246.138 59.635 258.815 97.7269 258.817 135.783V142.067H254.658V135.783ZM131.496 62.6611C144.12 62.6611 156.725 63.7391 168.718 64.7829C180.751 65.8302 192.148 66.8639 202.474 66.8639H204.553V71.026H202.474C191.927 71.026 180.322 69.9868 168.351 68.945C156.345 67.9002 143.912 66.8639 131.496 66.8639C106.42 66.8639 81.5349 66.8399 56.6847 70.9852L54.6463 71.3524L53.9532 67.2312L55.9917 66.8639C81.2383 62.6525 106.475 62.6611 131.496 62.6611Z" fill="#1D2132"/>
<path d="M238.824 173.41L237.356 174.879C235.091 177.146 231.744 179.358 228.673 181.408C225.483 183.536 222.55 185.496 220.641 187.406L220.397 187.651L220.111 187.814C194.887 200.437 169.492 208.91 139.837 208.91H137.758V204.748H139.837C168.586 204.748 193.278 196.517 218.113 184.101C220.357 181.971 223.454 179.87 226.349 177.939C229.539 175.81 232.471 173.811 234.38 171.9L235.848 170.431L238.824 173.41ZM171.718 191.446L169.721 192.098C156.829 196.397 143.954 196.383 131.48 196.383C119.013 196.383 106.163 196.393 93.2792 192.098L91.2815 191.446L92.5861 187.447L94.5838 188.14C106.73 192.192 118.916 192.18 131.48 192.18C144.051 192.18 156.263 192.195 168.416 188.14L170.373 187.447L171.718 191.446ZM0 119.058V112.815H4.15842V119.058C4.15842 136.89 10.3901 154.615 22.7083 166.84L28.3751 171.737L28.6197 171.9C30.5289 173.811 33.4605 175.81 36.6512 177.939C39.7174 179.985 43.0333 182.205 45.2942 184.468L46.7619 185.937L43.8265 188.875L42.3589 187.406C40.4515 185.497 37.5145 183.534 34.3274 181.408C31.256 179.358 27.9092 177.146 25.6436 174.879V174.838C8.48338 161.808 0 140.354 0 119.058ZM16.6745 123.261V116.977H20.8737V123.261C20.8755 135.379 24.9105 147.336 32.7782 155.211L34.2459 156.68L31.3105 159.618L29.8428 158.149C21.0152 149.314 16.6763 136.208 16.6745 123.261Z" fill="#1D2132"/>
<path d="M242.142 123.24V121.159H246.3V123.24C246.3 131.766 245.256 138.341 243.039 143.888C240.816 149.45 237.479 153.859 233.173 158.169C216.058 175.299 190.457 183.764 165.537 192.078L163.58 192.771L162.235 188.773L164.233 188.12C189.409 179.72 213.915 171.487 230.197 155.19C234.236 151.147 237.174 147.213 239.125 142.337C241.083 137.437 242.142 131.428 242.142 123.24ZM28.4316 155.068C49.1815 171.681 69.7358 183.945 94.2733 188.038L96.3118 188.405L95.6187 192.527L93.5803 192.159C68.0281 187.897 46.8141 175.139 25.8224 158.332L24.1917 157.027L26.8009 153.762L28.4316 155.068ZM146.091 94.0243C146.091 90.5254 144.322 86.827 141.484 83.9864C138.647 81.1529 134.986 79.3754 131.495 79.3754C128.004 79.3754 124.343 81.1529 121.507 83.9864C118.669 86.8269 116.9 90.5254 116.9 94.0243C116.906 97.5183 118.673 101.185 121.507 104.021C124.344 106.857 128.003 108.632 131.495 108.632C134.988 108.632 138.647 106.857 141.484 104.021C144.317 101.185 146.085 97.5183 146.091 94.0243ZM150.29 94.0243C150.284 98.8706 147.874 103.537 144.46 106.959C141.036 110.386 136.349 112.794 131.495 112.794C126.642 112.794 121.955 110.386 118.531 106.959C115.117 103.537 112.706 98.8705 112.701 94.0243C112.701 89.1703 115.111 84.4747 118.531 81.0484C121.955 77.6214 126.642 75.2134 131.495 75.2134C136.349 75.2134 141.036 77.6214 144.46 81.0484C147.88 84.4747 150.29 89.1703 150.29 94.0243Z" fill="#1D2132"/>
<path d="M137.742 94.0137C137.742 92.604 137.017 91.0029 135.744 89.7292C134.476 88.4656 132.906 87.7326 131.504 87.7298C130.095 87.7298 128.496 88.4556 127.223 89.7292C125.951 91.0029 125.226 92.604 125.226 94.0137C125.228 95.4169 125.961 96.9883 127.223 98.2574C128.496 99.5311 130.095 100.257 131.504 100.257C132.91 100.254 134.474 99.5286 135.744 98.2574C137.014 96.9862 137.739 95.4214 137.742 94.0137ZM141.941 94.0137C141.938 96.7793 140.577 99.3779 138.72 101.236C136.863 103.094 134.267 104.457 131.504 104.46C128.742 104.46 126.146 103.092 124.288 101.236C122.431 99.3779 121.07 96.7793 121.067 94.0137C121.067 91.2451 122.429 88.6514 124.288 86.7913C126.146 84.9312 128.738 83.5677 131.504 83.5677C134.267 83.5705 136.863 84.9331 138.72 86.7913C140.574 88.6508 141.941 91.2491 141.941 94.0137Z" fill="#1D2132"/>
</svg>

<svg xmlns="http://www.w3.org/2000/svg" width="263" height="211" fill="none" viewBox="0 0 263 211"><path fill="#fff" d="M2.08 114.897v25.07l4.174 8.357 4.175 8.357 4.175 4.178 4.174 8.357 8.35 4.178 8.35 8.357 8.349 4.179 8.35 4.178 8.349 4.178 12.524 4.179 8.35 4.178h8.349l12.524 4.179h20.874l8.349 4.178 8.35-4.178h20.873l8.35-4.179h12.524l8.349-4.178 8.35-4.179 12.524-4.178 8.349-4.178 8.35-4.179 8.349-8.357 4.175-4.178 8.349-8.357 4.175-4.178 4.175-8.357v-8.357l4.175-8.356V2.081H2.079z"/><path fill="#1d2132" d="M137.742 94.014c0-1.41-.725-3.011-1.998-4.285-1.268-1.263-2.838-1.996-4.24-2-1.409 0-3.008.727-4.281 2s-1.997 2.875-1.997 4.285c.002 1.403.735 2.974 1.997 4.243 1.273 1.274 2.872 2 4.281 2 1.406-.003 2.97-.728 4.24-2 1.27-1.27 1.995-2.836 1.998-4.243m4.199 0c-.003 2.765-1.364 5.364-3.221 7.222s-4.453 3.221-7.216 3.224c-2.762 0-5.358-1.368-7.216-3.224-1.857-1.858-3.218-4.457-3.221-7.222 0-2.769 1.362-5.363 3.221-7.223s4.45-3.223 7.216-3.223c2.763.002 5.359 1.365 7.216 3.223 1.854 1.86 3.221 4.458 3.221 7.223m100.201 29.226v-2.081h4.158v2.081c0 8.526-1.044 15.101-3.261 20.648-2.223 5.562-5.56 9.971-9.866 14.281-17.115 17.13-42.716 25.595-67.636 33.909l-1.957.693-1.345-3.998 1.998-.653c25.176-8.4 49.682-16.633 65.964-32.93 4.039-4.043 6.977-7.977 8.928-12.853 1.958-4.9 3.017-10.909 3.017-19.097m-213.71 31.828c20.75 16.613 41.304 28.877 65.841 32.97l2.039.367-.693 4.122-2.039-.368c-25.552-4.262-46.766-17.02-67.758-33.827l-1.63-1.305 2.609-3.265zM146.09 94.024c0-3.499-1.769-7.197-4.607-10.038-2.837-2.833-6.498-4.61-9.989-4.61s-7.152 1.777-9.988 4.61c-2.838 2.84-4.607 6.54-4.607 10.038.006 3.494 1.773 7.161 4.607 9.997 2.837 2.836 6.496 4.611 9.988 4.611 3.493 0 7.152-1.775 9.989-4.611 2.833-2.836 4.601-6.503 4.607-9.997m4.199 0c-.006 4.847-2.416 9.513-5.83 12.935-3.424 3.427-8.111 5.835-12.965 5.835s-9.54-2.408-12.964-5.835c-3.414-3.422-5.825-8.088-5.83-12.935 0-4.854 2.41-9.55 5.83-12.976 3.424-3.427 8.111-5.835 12.964-5.835 4.854 0 9.541 2.408 12.965 5.835 3.42 3.427 5.83 8.122 5.83 12.976m238.824 173.41-1.468 1.469c-2.265 2.267-5.612 4.479-8.683 6.529-3.19 2.128-6.123 4.088-8.032 5.998l-.244.245-.286.163c-25.224 12.623-50.619 21.096-80.274 21.096h-2.079v-4.162h2.079c28.749 0 53.441-8.231 78.276-20.647 2.244-2.13 5.341-4.231 8.236-6.162 3.19-2.129 6.122-4.128 8.031-6.039l1.468-1.469zm-67.106 18.036-1.997.652c-12.892 4.299-25.767 4.285-38.241 4.285-12.467 0-25.317.01-38.2-4.285l-1.999-.652 1.305-3.999 1.998.693c12.146 4.052 24.332 4.04 36.896 4.04 12.571 0 24.783.015 36.936-4.04l1.957-.693zM0 119.058v-6.243h4.158v6.243c0 17.832 6.232 35.557 18.55 47.782l5.667 4.897.245.163c1.909 1.911 4.84 3.91 8.031 6.039 3.066 2.046 6.382 4.266 8.643 6.529l1.468 1.469-2.935 2.938-1.468-1.469c-1.907-1.909-4.845-3.872-8.032-5.998-3.071-2.05-6.418-4.262-8.683-6.529v-.041C8.484 161.808 0 140.354 0 119.058m16.675 4.203v-6.284h4.199v6.284c.002 12.118 4.037 24.075 11.904 31.95l1.468 1.469-2.936 2.938-1.467-1.469c-8.828-8.835-13.167-21.941-13.169-34.888m237.984 12.522c-.001-37.14-12.376-74.24-37.059-103.072l-.489-.572-2.12 2.163-1.467-1.51c-2.113-2.114-4.09-4.09-6.034-5.55-1.964-1.473-3.61-2.16-5.015-2.162h-2.079v-.938c-22.888-3.238-45.808-3.265-68.899-3.265-25.076 0-49.961.017-74.811 4.162l-.326.041c-1.404 0-3.052.69-5.015 2.163-1.942 1.457-3.924 3.437-6.034 5.55C20.678 61.611 8.335 98.68 8.333 135.782v2.081H4.174v-2.081c.002-38.056 12.68-76.148 38.079-105.806l.081-.123c2.059-2.06 4.255-4.284 6.482-5.957 2.112-1.585 4.547-2.867 7.176-2.979l9.499-1.387c22.077-2.819 44.117-2.816 66.005-2.816 25.02 0 50.257-.009 75.504 4.203l2.038.326-.326 1.877c.414.271.87.48 1.264.776 2.227 1.672 4.423 3.897 6.482 5.957l.53.53 2.405-1.999 1.346 1.592c25.399 29.658 38.076 67.75 38.078 105.806v6.284h-4.159zM131.496 62.661c12.624 0 25.229 1.078 37.222 2.122 12.033 1.047 23.43 2.08 33.756 2.08h2.079v4.163h-2.079c-10.547 0-22.152-1.04-34.123-2.081-12.006-1.045-24.439-2.081-36.855-2.081-25.076 0-49.961-.024-74.811 4.121l-2.039.367-.693-4.12 2.039-.368c25.246-4.212 50.483-4.203 75.504-4.203M44.764 184.07c24.644 12.331 49.319 16.48 78.44 20.647h18.712v4.203h-19.079v-.041c-29.213-4.177-54.57-8.396-79.948-21.096l-1.876-.939 1.876-3.713zm214.078-65.002V4.162H4.158v112.825H0V0h263v119.068c0 25.512-8.512 47.143-25.888 60.187l-1.672 1.224-2.487-3.305 1.672-1.265c16.018-12.028 24.217-32.215 24.217-56.841M139.837 45.946c16.03 0 31.981 4.83 46.028 10.772l13.372 6.162.123.081 7.787 5.183c17.655 13.001 31.617 32.103 39.056 54.433l.653 1.999-3.955 1.306-.652-1.958c-8.2-24.62-24.623-45.105-45.05-57.372h-.041c-16.594-8.288-37.027-16.403-57.321-16.403h-16.674c-20.313 0-40.73 8.088-61.602 16.444-20.381 16.41-32.68 36.901-45.172 57.739l-1.06 1.795-3.588-2.163 1.06-1.795c12.503-20.856 25.229-42.063 46.436-59.044l.245-.204.285-.123c20.778-8.318 42.053-16.852 63.396-16.852zM129.4 100.257h4.2v20.892h-4.2zm-4.158-8.324v4.162h-16.715v-4.162zm29.231 0v4.162h-16.715v-4.162zM129.4 66.838h4.2V87.73h-4.2z"/></svg>
